Newaita-dark/apps/16/accessories-character-map.svg

<?xml version="1.0" encoding="UTF-8"?>
<svg xmlns="http://www.w3.org/2000/svg" xmlns:xlink="http://www.w3.org/1999/xlink" width="16px" height="16px" viewBox="0 0 16 16" version="1.1">
<defs>
<linearGradient id="linear0" gradientUnits="userSpaceOnUse" x1="254" y1="233.5" x2="254" y2="254.666672" gradientTransform="matrix(0.031253,0,0,0.031253,-0.00000190753,6.719393)">
<stop offset="0" style="stop-color:rgb(0%,0%,0%);stop-opacity:0.27451;"/>
<stop offset="1" style="stop-color:rgb(0%,0%,0%);stop-opacity:0;"/>
</linearGradient>
<radialGradient id="radial0" gradientUnits="userSpaceOnUse" cx="450.908936" cy="189.579361" fx="450.908936" fy="189.579361" r="21.166656" gradientTransform="matrix(0.0000000870852,-0.0390662,-0.0703192,-0.0000000507693,26.065324,31.797666)">
<stop offset="0" style="stop-color:rgb(0%,0%,0%);stop-opacity:0.313726;"/>
<stop offset="0.222222" style="stop-color:rgb(0%,0%,0%);stop-opacity:0.27451;"/>
<stop offset="1" style="stop-color:rgb(0%,0%,0%);stop-opacity:0;"/>
</radialGradient>
<radialGradient id="radial1" gradientUnits="userSpaceOnUse" cx="450.908936" cy="189.579361" fx="450.908936" fy="189.579361" r="21.166656" gradientTransform="matrix(-0.0000000870852,0.0390662,0.0703192,0.0000000507693,-10.188807,-3.763739)">
<stop offset="0" style="stop-color:rgb(0%,0%,0%);stop-opacity:0.313726;"/>
<stop offset="0.222222" style="stop-color:rgb(0%,0%,0%);stop-opacity:0.27451;"/>
<stop offset="1" style="stop-color:rgb(0%,0%,0%);stop-opacity:0;"/>
</radialGradient>
<radialGradient id="radial2" gradientUnits="userSpaceOnUse" cx="450.908936" cy="189.579361" fx="450.908936" fy="189.579361" r="21.166656" gradientTransform="matrix(-0.0000000870852,-0.0390662,0.0703192,-0.0000000507693,-10.188807,31.797666)">
<stop offset="0" style="stop-color:rgb(0%,0%,0%);stop-opacity:0.313726;"/>
<stop offset="0.222222" style="stop-color:rgb(0%,0%,0%);stop-opacity:0.27451;"/>
<stop offset="1" style="stop-color:rgb(0%,0%,0%);stop-opacity:0;"/>
</radialGradient>
<radialGradient id="radial3" gradientUnits="userSpaceOnUse" cx="450.908936" cy="189.579361" fx="450.908936" fy="189.579361" r="21.166656" gradientTransform="matrix(0.0000000870852,0.0390662,-0.0703192,0.0000000507693,26.065323,-3.76374)">
<stop offset="0" style="stop-color:rgb(0%,0%,0%);stop-opacity:0.313726;"/>
<stop offset="0.222222" style="stop-color:rgb(0%,0%,0%);stop-opacity:0.27451;"/>
<stop offset="1" style="stop-color:rgb(0%,0%,0%);stop-opacity:0;"/>
</radialGradient>
<linearGradient id="linear1" gradientUnits="userSpaceOnUse" x1="285.75" y1="233.5" x2="285.75" y2="-168.666672" gradientTransform="matrix(0.031253,0,0,0.031253,0,6.719392)">
<stop offset="0" style="stop-color:rgb(61.960787%,61.960787%,61.960787%);stop-opacity:1;"/>
<stop offset="1" style="stop-color:rgb(74.117649%,74.117649%,74.117649%);stop-opacity:1;"/>
</linearGradient>
<linearGradient id="linear2" gradientUnits="userSpaceOnUse" x1="254" y1="-147.5" x2="253.999985" y2="212.333328" gradientTransform="matrix(0.031253,0,0,0.031253,0,6.719392)">
<stop offset="0" style="stop-color:rgb(87.843138%,87.843138%,87.843138%);stop-opacity:1;"/>
<stop offset="1" style="stop-color:rgb(93.333334%,93.333334%,93.333334%);stop-opacity:1;"/>
</linearGradient>
<filter id="alpha" filterUnits="objectBoundingBox" x="0%" y="0%" width="100%" height="100%">
  <feColorMatrix type="matrix" in="SourceGraphic" values="0 0 0 0 1 0 0 0 0 1 0 0 0 0 1 0 0 0 1 0"/>
</filter>
<mask id="mask0">
  <g filter="url(#alpha)">
<rect x="0" y="0" width="16" height="16" style="fill:rgb(0%,0%,0%);fill-opacity:0.99;stroke:none;"/>
  </g>
</mask>
<linearGradient id="linear3" gradientUnits="userSpaceOnUse" x1="960" y1="1695.118164" x2="960.000061" y2="135.118118" gradientTransform="matrix(0.00826902,0,0,0.00826902,0,0)">
<stop offset="0" style="stop-color:rgb(25.882354%,25.882354%,25.882354%);stop-opacity:1;"/>
<stop offset="1" style="stop-color:rgb(38.039216%,38.039216%,38.039216%);stop-opacity:1;"/>
</linearGradient>
<clipPath id="clip1">
  <rect x="0" y="0" width="16" height="16"/>
</clipPath>
<g id="surface5" clip-path="url(#clip1)">
<path style=" stroke:none;fill-rule:nonzero;fill:url(#linear3);" d="M 7.289062 3.386719 C 7.175781 3.390625 7.066406 3.449219 7.007812 3.554688 L 6.84375 3.839844 C 6.75 4 6.804688 4.199219 6.964844 4.292969 L 8.394531 5.117188 C 8.554688 5.210938 8.757812 5.15625 8.847656 4.996094 L 9.011719 4.710938 C 9.105469 4.550781 9.050781 4.351562 8.890625 4.257812 L 7.460938 3.433594 C 7.40625 3.402344 7.347656 3.386719 7.289062 3.386719 Z M 5.953125 5.746094 C 5.585938 5.746094 5.292969 6.042969 5.292969 6.410156 L 5.292969 7.070312 L 6.285156 7.070312 C 6.285156 6.886719 6.433594 6.738281 6.613281 6.738281 L 9.261719 6.738281 C 9.445312 6.738281 9.59375 6.886719 9.59375 7.070312 L 9.59375 8.394531 L 5.953125 8.394531 C 5.585938 8.394531 5.292969 8.6875 5.292969 9.054688 L 5.292969 11.371094 C 5.292969 11.738281 5.585938 12.03125 5.953125 12.03125 L 10.585938 12.03125 L 10.585938 6.410156 C 10.585938 6.042969 10.289062 5.746094 9.921875 5.746094 Z M 6.613281 9.386719 L 9.59375 9.386719 L 9.59375 11.039062 L 6.613281 11.039062 C 6.433594 11.039062 6.285156 10.894531 6.285156 10.710938 L 6.285156 9.71875 C 6.285156 9.535156 6.433594 9.386719 6.613281 9.386719 Z M 6.613281 9.386719 "/>
</g>
<mask id="mask1">
  <g filter="url(#alpha)">
<rect x="0" y="0" width="16" height="16" style="fill:rgb(0%,0%,0%);fill-opacity:0.99;stroke:none;"/>
  </g>
</mask>
<clipPath id="clip2">
  <rect x="0" y="0" width="16" height="16"/>
</clipPath>
<g id="surface8" clip-path="url(#clip2)">
<path style=" stroke:none;fill-rule:nonzero;fill:rgb(0%,0%,0%);fill-opacity:0.235294;" d="M 7.289062 3.386719 C 7.175781 3.390625 7.066406 3.449219 7.007812 3.554688 L 6.84375 3.839844 C 6.789062 3.933594 6.785156 4.039062 6.824219 4.128906 C 6.828125 4.117188 6.835938 4.101562 6.84375 4.089844 L 7.007812 3.800781 C 7.066406 3.699219 7.175781 3.636719 7.289062 3.636719 C 7.347656 3.636719 7.40625 3.648438 7.460938 3.679688 L 8.890625 4.507812 C 8.957031 4.546875 9.007812 4.605469 9.035156 4.667969 C 9.09375 4.519531 9.039062 4.34375 8.890625 4.257812 L 7.460938 3.433594 C 7.40625 3.402344 7.347656 3.386719 7.289062 3.386719 Z M 5.953125 5.746094 C 5.585938 5.746094 5.292969 6.042969 5.292969 6.410156 L 5.292969 6.65625 C 5.292969 6.292969 5.585938 5.996094 5.953125 5.996094 L 9.921875 5.996094 C 10.289062 5.996094 10.585938 6.292969 10.585938 6.65625 L 10.585938 6.410156 C 10.585938 6.042969 10.289062 5.746094 9.921875 5.746094 Z M 5.953125 8.394531 C 5.585938 8.394531 5.292969 8.6875 5.292969 9.054688 L 5.292969 9.304688 C 5.292969 8.9375 5.585938 8.640625 5.953125 8.640625 L 9.59375 8.640625 L 9.59375 8.394531 Z M 6.285156 10.710938 L 6.285156 10.957031 C 6.285156 11.140625 6.433594 11.289062 6.613281 11.289062 L 9.59375 11.289062 L 9.59375 11.039062 L 6.613281 11.039062 C 6.433594 11.039062 6.285156 10.894531 6.285156 10.710938 Z M 6.285156 10.710938 "/>
</g>
<mask id="mask2">
  <g filter="url(#alpha)">
<rect x="0" y="0" width="16" height="16" style="fill:rgb(0%,0%,0%);fill-opacity:0.99;stroke:none;"/>
  </g>
</mask>
<clipPath id="clip3">
  <rect x="0" y="0" width="16" height="16"/>
</clipPath>
<g id="surface11" clip-path="url(#clip3)">
<path style=" stroke:none;fill-rule:nonzero;fill:rgb(100%,100%,100%);fill-opacity:1;" d="M 6.84375 4.171875 C 6.75 4.328125 6.804688 4.53125 6.964844 4.621094 L 8.394531 5.449219 C 8.554688 5.542969 8.757812 5.488281 8.847656 5.328125 L 9.011719 5.042969 C 9.074219 4.9375 9.070312 4.808594 9.011719 4.710938 L 8.847656 4.996094 C 8.757812 5.15625 8.554688 5.210938 8.394531 5.117188 L 6.964844 4.292969 C 6.910156 4.261719 6.871094 4.21875 6.84375 4.171875 Z M 6.613281 6.738281 C 6.433594 6.738281 6.285156 6.886719 6.285156 7.070312 L 5.292969 7.070312 L 5.292969 7.402344 L 6.285156 7.402344 C 6.285156 7.21875 6.433594 7.070312 6.613281 7.070312 L 9.261719 7.070312 C 9.445312 7.070312 9.59375 7.21875 9.59375 7.402344 L 9.59375 7.070312 C 9.59375 6.886719 9.445312 6.738281 9.261719 6.738281 Z M 6.613281 9.386719 C 6.433594 9.386719 6.285156 9.535156 6.285156 9.71875 L 6.285156 10.046875 C 6.285156 9.863281 6.433594 9.71875 6.613281 9.71875 L 9.59375 9.71875 L 9.59375 9.386719 Z M 5.292969 11.371094 L 5.292969 11.703125 C 5.292969 12.066406 5.585938 12.363281 5.953125 12.363281 L 10.585938 12.363281 L 10.585938 12.03125 L 5.953125 12.03125 C 5.585938 12.03125 5.292969 11.738281 5.292969 11.371094 Z M 5.292969 11.371094 "/>
</g>
<mask id="mask3">
  <g filter="url(#alpha)">
<rect x="0" y="0" width="16" height="16" style="fill:rgb(0%,0%,0%);fill-opacity:0.99;stroke:none;"/>
  </g>
</mask>
<clipPath id="clip4">
  <rect x="0" y="0" width="16" height="16"/>
</clipPath>
<g id="surface14" clip-path="url(#clip4)">
<path style="fill:none;stroke-width:11.338583;stroke-linecap:round;stroke-linejoin:round;stroke:rgb(12.941177%,12.941177%,12.941177%);stroke-opacity:1;stroke-miterlimit:4;" d="M 881.490671 409.567209 C 867.791191 410.039605 854.564107 417.125543 847.47817 429.880231 L 827.637544 464.365129 C 816.300043 483.733359 822.913585 507.825548 842.281815 519.163048 L 1015.178699 618.838574 C 1034.546929 630.176075 1059.111514 623.562533 1069.976619 604.194303 L 1089.817245 569.709405 C 1101.154745 550.341175 1094.541203 526.248986 1075.172973 514.911485 L 902.276089 415.235959 C 895.662547 411.456792 888.576609 409.567209 881.490671 409.567209 Z M 719.931288 694.894307 C 675.526077 694.894307 640.096388 730.796393 640.096388 775.201603 L 640.096388 855.036503 L 760.084936 855.036503 C 760.084936 832.833898 778.035978 814.882855 799.766188 814.882855 L 1120.05058 814.882855 C 1142.253185 814.882855 1160.204228 832.833898 1160.204228 855.036503 L 1160.204228 1015.178699 L 719.931288 1015.178699 C 675.526077 1015.178699 640.096388 1050.608389 640.096388 1095.013599 L 640.096388 1375.144343 C 640.096388 1419.549554 675.526077 1454.979243 719.931288 1454.979243 L 1280.192776 1454.979243 L 1280.192776 775.201603 C 1280.192776 730.796393 1244.29069 694.894307 1199.88548 694.894307 Z M 799.766188 1135.167247 L 1160.204228 1135.167247 L 1160.204228 1334.990695 L 799.766188 1334.990695 C 778.035978 1334.990695 760.084936 1317.512048 760.084936 1295.309443 L 760.084936 1175.320895 C 760.084936 1153.11829 778.035978 1135.167247 799.766188 1135.167247 Z M 799.766188 1135.167247 " transform="matrix(0.00826902,0,0,0.00826902,0,0)"/>
</g>
</defs>
<g id="surface1">
<path style=" stroke:none;fill-rule:nonzero;fill:url(#linear0);" d="M 2.976562 13.96875 L 12.898438 13.96875 L 12.898438 14.703125 L 2.976562 14.703125 Z M 2.976562 13.96875 "/>
<path style=" stroke:none;fill-rule:nonzero;fill:url(#radial0);" d="M 12.898438 14.015625 L 14.222656 14.015625 L 14.222656 13.355469 L 12.898438 13.355469 Z M 12.898438 14.015625 "/>
<path style=" stroke:none;fill-rule:nonzero;fill:url(#radial1);" d="M 2.976562 14.015625 L 1.652344 14.015625 L 1.652344 14.679688 L 2.976562 14.679688 Z M 2.976562 14.015625 "/>
<path style=" stroke:none;fill-rule:nonzero;fill:url(#radial2);" d="M 2.976562 14.015625 L 1.652344 14.015625 L 1.652344 13.355469 L 2.976562 13.355469 Z M 2.976562 14.015625 "/>
<path style=" stroke:none;fill-rule:nonzero;fill:url(#radial3);" d="M 12.898438 14.015625 L 14.222656 14.015625 L 14.222656 14.679688 L 12.898438 14.679688 Z M 12.898438 14.015625 "/>
<path style=" stroke:none;fill-rule:nonzero;fill:url(#linear1);" d="M 2.316406 1.449219 L 13.5625 1.449219 C 13.925781 1.449219 14.222656 1.746094 14.222656 2.109375 L 14.222656 13.355469 C 14.222656 13.722656 13.925781 14.015625 13.5625 14.015625 L 2.316406 14.015625 C 1.949219 14.015625 1.652344 13.722656 1.652344 13.355469 L 1.652344 2.109375 C 1.652344 1.746094 1.949219 1.449219 2.316406 1.449219 Z M 2.316406 1.449219 "/>
<path style=" stroke:none;fill-rule:nonzero;fill:rgb(90.196079%,90.196079%,90.196079%);fill-opacity:0.392157;" d="M 2.316406 1.449219 C 1.949219 1.449219 1.652344 1.742188 1.652344 2.109375 L 1.652344 2.191406 C 1.652344 1.824219 1.949219 1.53125 2.316406 1.53125 L 13.5625 1.53125 C 13.925781 1.53125 14.222656 1.824219 14.222656 2.191406 L 14.222656 2.109375 C 14.222656 1.742188 13.925781 1.449219 13.5625 1.449219 Z M 2.316406 1.449219 "/>
<path style=" stroke:none;fill-rule:nonzero;fill:rgb(0%,0%,0%);fill-opacity:0.196078;" d="M 2.316406 14.015625 C 1.949219 14.015625 1.652344 13.722656 1.652344 13.355469 L 1.652344 13.273438 C 1.652344 13.640625 1.949219 13.933594 2.316406 13.933594 L 13.5625 13.933594 C 13.925781 13.933594 14.222656 13.640625 14.222656 13.273438 L 14.222656 13.355469 C 14.222656 13.722656 13.925781 14.015625 13.5625 14.015625 Z M 2.316406 14.015625 "/>
<path style="fill:none;stroke-width:3;stroke-linecap:round;stroke-linejoin:miter;stroke:rgb(12.941177%,12.941177%,12.941177%);stroke-opacity:1;stroke-miterlimit:4;" d="M 74.117922 -168.629428 L 433.958559 -168.629428 C 445.582449 -168.629428 455.081542 -159.130335 455.081542 -147.506445 L 455.081542 212.334192 C 455.081542 224.08307 445.582449 233.457174 433.958559 233.457174 L 74.117922 233.457174 C 62.369044 233.457174 52.869951 224.08307 52.869951 212.334192 L 52.869951 -147.506445 C 52.869951 -159.130335 62.369044 -168.629428 74.117922 -168.629428 Z M 74.117922 -168.629428 " transform="matrix(0.031253,0,0,0.031253,0,6.719392)"/>
<path style=" stroke:none;fill-rule:nonzero;fill:url(#linear2);" d="M 3.308594 2.441406 L 12.570312 2.441406 C 12.933594 2.441406 13.230469 2.71875 13.230469 3.058594 L 13.230469 12.40625 C 13.230469 12.746094 12.933594 13.023438 12.570312 13.023438 L 3.308594 13.023438 C 2.941406 13.023438 2.644531 12.746094 2.644531 12.40625 L 2.644531 3.058594 C 2.644531 2.71875 2.941406 2.441406 3.308594 2.441406 Z M 3.308594 2.441406 "/>
<use xlink:href="#surface5" mask="url(#mask0)"/>
<use xlink:href="#surface8" mask="url(#mask1)"/>
<use xlink:href="#surface11" mask="url(#mask2)"/>
<use xlink:href="#surface14" mask="url(#mask3)"/>
</g>
</svg>

<svg xmlns="http://www.w3.org/2000/svg" width="16pt" height="16pt" viewBox="0 0 16 16"><defs><linearGradient id="a" gradientUnits="userSpaceOnUse" x1="254" y1="233.5" x2="254" y2="254.667" gradientTransform="matrix(.03125 0 0 .03125 0 6.72)"><stop offset="0" stop-opacity=".275"/><stop offset="1" stop-opacity="0"/></linearGradient><radialGradient id="b" gradientUnits="userSpaceOnUse" cx="450.909" cy="189.579" fx="450.909" fy="189.579" r="21.167" gradientTransform="matrix(0 -.03907 -.07032 0 26.065 31.798)"><stop offset="0" stop-opacity=".314"/><stop offset=".222" stop-opacity=".275"/><stop offset="1" stop-opacity="0"/></radialGradient><radialGradient id="c" gradientUnits="userSpaceOnUse" cx="450.909" cy="189.579" fx="450.909" fy="189.579" r="21.167" gradientTransform="matrix(0 .03907 .07032 0 -10.189 -3.764)"><stop offset="0" stop-opacity=".314"/><stop offset=".222" stop-opacity=".275"/><stop offset="1" stop-opacity="0"/></radialGradient><radialGradient id="d" gradientUnits="userSpaceOnUse" cx="450.909" cy="189.579" fx="450.909" fy="189.579" r="21.167" gradientTransform="matrix(0 -.03907 .07032 0 -10.189 31.798)"><stop offset="0" stop-opacity=".314"/><stop offset=".222" stop-opacity=".275"/><stop offset="1" stop-opacity="0"/></radialGradient><radialGradient id="e" gradientUnits="userSpaceOnUse" cx="450.909" cy="189.579" fx="450.909" fy="189.579" r="21.167" gradientTransform="matrix(0 .03907 -.07032 0 26.065 -3.764)"><stop offset="0" stop-opacity=".314"/><stop offset=".222" stop-opacity=".275"/><stop offset="1" stop-opacity="0"/></radialGradient><linearGradient id="f" gradientUnits="userSpaceOnUse" x1="285.75" y1="233.5" x2="285.75" y2="-168.667" gradientTransform="matrix(.03125 0 0 .03125 0 6.72)"><stop offset="0" stop-color="#bdbdbd"/><stop offset="1" stop-color="#e0e0e0"/></linearGradient><linearGradient id="g" gradientUnits="userSpaceOnUse" x1="254" y1="-147.5" x2="254" y2="212.333" gradientTransform="matrix(.03125 0 0 .03125 0 6.72)"><stop offset="0" stop-color="#eee"/><stop offset="1" stop-color="#f5f5f5"/></linearGradient><linearGradient id="h" gradientUnits="userSpaceOnUse" x1="349.25" y1="-115.75" x2="349.25" y2="191.167"><stop offset="0" stop-color="#424242"/><stop offset="1" stop-color="#616161"/></linearGradient><linearGradient id="i" gradientUnits="userSpaceOnUse" x1="291.042" y1="-115.75" x2="296.333" y2="191.167"><stop offset="0" stop-color="#424242"/><stop offset="1" stop-color="#616161"/></linearGradient></defs><path d="M2.977 13.969h9.921v.734H2.977zm0 0" fill="url(#a)"/><path d="M12.898 14.016h1.325v-.66h-1.325zm0 0" fill="url(#b)"/><path d="M2.977 14.016H1.652v.664h1.325zm0 0" fill="url(#c)"/><path d="M2.977 14.016H1.652v-.66h1.325zm0 0" fill="url(#d)"/><path d="M12.898 14.016h1.325v.664h-1.325zm0 0" fill="url(#e)"/><path d="M2.316 1.45h11.246c.364 0 .66.296.66.66v11.245a.66.66 0 0 1-.66.66H2.316a.66.66 0 0 1-.664-.66V2.11c0-.363.297-.66.664-.66zm0 0" fill="url(#f)"/><path d="M2.316 1.45a.66.66 0 0 0-.664.66v.081a.66.66 0 0 1 .664-.66h11.246a.66.66 0 0 1 .66.66V2.11a.66.66 0 0 0-.66-.66zm0 0" fill="#e6e6e6" fill-opacity=".392"/><path d="M2.316 14.016a.66.66 0 0 1-.664-.66v-.083c0 .368.297.66.664.66h11.246a.66.66 0 0 0 .66-.66v.082a.66.66 0 0 1-.66.66zm0 0" fill-opacity=".196"/><path d="M2.316 1.45h11.247c.363 0 .66.296.66.66v11.245a.66.66 0 0 1-.66.66H2.316a.66.66 0 0 1-.664-.66V2.11c0-.363.297-.66.664-.66zm0 0" fill="none" stroke-width=".09375" stroke-linecap="round" stroke="#212121"/><path d="M2.977 2.11h9.921c.368 0 .665.277.665.617v10.011c0 .34-.297.617-.665.617H2.977c-.364 0-.66-.277-.66-.617V2.727c0-.34.296-.618.66-.618zm0 0" fill="url(#g)"/><path d="M317.47-20.519c-28.248 0-53.12 10.25-68.494 26.123-16.123 21.498 5 37.371 39.871 21.748 7.5-3.375 17.624-5.5 28.623-5.5 23.497 0 42.37 9.374 42.37 21.123v29.623c-12.498-5.375-26.872-8.375-42.37-8.375-46.87 0-84.617 28.248-84.617 63.494 0 3.875 0 5.25 1.125 10.5 6.749 30.121 41.37 52.994 83.492 52.994 15.498 0 29.872-3.124 42.37-8.499v8.5h42.372V42.974c0-35.121-37.747-63.494-84.742-63.494zm0 126.988c23.497 0 42.37 9.5 42.37 21.248 0 11.624-18.873 21.123-42.37 21.123-23.373 0-42.246-9.499-42.246-21.123 0-11.749 18.873-21.248 42.246-21.248zm0 0" transform="matrix(.03125 0 0 .03125 0 6.72)" fill="url(#h)" stroke-width="3" stroke="#212121"/><path d="M269.85-105.135l31.746 58.119c5.375 10.624 47.62 10.624 42.371-5.25l-21.123-52.87c-10.624-21.247-63.494-15.873-52.995 0zm0 0" transform="matrix(.03125 0 0 .03125 0 6.72)" fill-rule="evenodd" fill="url(#i)" stroke-width="3" stroke="#212121"/></svg>
